src/lib/packages/icons/src/assets/line/scissors.svg

<svg width="24" height="24" viewBox="0 0 24 24" fill="none" xmlns="http://www.w3.org/2000/svg">
<path d="M9.125 8.065C9.518 7.472 9.75 6.763 9.75 6C9.75 3.932 8.068 2.25 6 2.25C3.932 2.25 2.25 3.932 2.25 6C2.25 8.068 3.932 9.75 6 9.75C6.763 9.75 7.472 9.518 8.065 9.125L10.94 12L8.065 14.875C7.472 14.482 6.763 14.25 6 14.25C3.932 14.25 2.25 15.932 2.25 18C2.25 20.068 3.932 21.75 6 21.75C8.068 21.75 9.75 20.068 9.75 18C9.75 17.237 9.518 16.528 9.125 15.935L12 13.06L19.47 20.53C19.616 20.676 19.808 20.75 20 20.75C20.192 20.75 20.384 20.677 20.53 20.53C20.823 20.237 20.823 19.762 20.53 19.469L9.125 8.065ZM6 20.25C4.759 20.25 3.75 19.241 3.75 18C3.75 16.759 4.759 15.75 6 15.75C6.62 15.75 7.18099 16.002 7.58899 16.408C7.58899 16.408 7.59003 16.409 7.59003 16.41C7.59003 16.411 7.59098 16.411 7.59198 16.411C7.99898 16.818 8.25 17.38 8.25 18C8.25 19.241 7.241 20.25 6 20.25ZM3.75 6C3.75 4.759 4.759 3.75 6 3.75C7.241 3.75 8.25 4.759 8.25 6C8.25 6.62 7.99798 7.18099 7.59198 7.58899C7.59198 7.58899 7.59103 7.59 7.59003 7.59C7.58903 7.59 7.58899 7.59101 7.58899 7.59201C7.18199 7.99801 6.62 8.25 6 8.25C4.759 8.25 3.75 7.241 3.75 6ZM13.97 10.03C13.677 9.737 13.677 9.26199 13.97 8.96899L19.47 3.46899C19.763 3.17599 20.238 3.17599 20.531 3.46899C20.824 3.76199 20.824 4.237 20.531 4.53L15.031 10.03C14.885 10.176 14.693 10.25 14.501 10.25C14.309 10.25 14.116 10.177 13.97 10.03Z" fill="currentColor"/>
</svg>

<svg xmlns="http://www.w3.org/2000/svg" width="24" height="24" fill="none"><path fill="currentColor" d="M9.125 8.065A3.726 3.726 0 0 0 9.75 6 3.754 3.754 0 0 0 6 2.25 3.754 3.754 0 0 0 2.25 6 3.754 3.754 0 0 0 6 9.75c.763 0 1.472-.232 2.065-.625L10.94 12l-2.875 2.875A3.726 3.726 0 0 0 6 14.25 3.754 3.754 0 0 0 2.25 18 3.754 3.754 0 0 0 6 21.75 3.754 3.754 0 0 0 9.75 18c0-.763-.232-1.472-.625-2.065L12 13.06l7.47 7.47a.748.748 0 0 0 1.06 0 .75.75 0 0 0 0-1.061L9.125 8.065ZM6 20.25A2.252 2.252 0 0 1 3.75 18 2.252 2.252 0 0 1 6 15.75a2.246 2.246 0 0 1 1.592.661c.407.407.658.969.658 1.589A2.252 2.252 0 0 1 6 20.25ZM3.75 6A2.252 2.252 0 0 1 6 3.75 2.252 2.252 0 0 1 8.25 6c0 .62-.252 1.181-.658 1.589l-.002.001-.001.002A2.244 2.244 0 0 1 6 8.25 2.252 2.252 0 0 1 3.75 6Zm10.22 4.03a.75.75 0 0 1 0-1.061l5.5-5.5a.75.75 0 1 1 1.061 1.061l-5.5 5.5a.748.748 0 0 1-1.061 0Z"/></svg>
